Nordic-green/24x24/places/folder-nordic-green-mail-cloud.svg

<svg xmlns="http://www.w3.org/2000/svg" style="isolation:isolate" width="24" height="24"><defs><clipPath clipPathUnits="userSpaceOnUse" id="a"><path fill="none" d="M0 0h48v48H0z"/></clipPath></defs><g clip-path="url(#a)" transform="matrix(.5 0 0 .5 -.001 .001)"><linearGradient id="b" x1="-.046" y1=".16" x2=".852" y2=".71" gradientTransform="matrix(45 0 0 30.763 1.229 15.445)" gradientUnits="userSpaceOnUse"><stop offset="3.043%" stop-color="#a3be8c"/><stop offset="98.261%" stop-color="#a3be8c"/></linearGradient><path d="M1.545 46.208l44.378-.01a.306.306 0 0 0 .306-.306v-30.12a.307.307 0 0 0-.306-.307l-25.816-.02-4.221 3.206a.535.535 0 0 1-.276.092l-14.381-.055.009 27.214c0 .169.138.306.307.306z" stroke-miterlimit="3" vector-effect="non-scaling-stroke" fill="url(#b)" stroke="#72a046" stroke-linecap="square"/><linearGradient id="c" x1="0" y1=".5" x2="1" y2=".5" gradientTransform="matrix(18.873 0 0 6.535 1.243 12.208)" gradientUnits="userSpaceOnUse"><stop offset="3.043%" stop-color="#a3be8c"/><stop offset="98.261%" stop-color="#a3be8c"/></linearGradient><path d="M20.116 15.456L15.887 12.3a.538.538 0 0 0-.277-.092H1.554a.308.308 0 0 0-.307.307l-.004 6.168 14.557.06z" stroke-miterlimit="3" vector-effect="non-scaling-stroke" fill="url(#c)" stroke="#72a046" stroke-linecap="square"/><path d="M24 25a5 5 0 0 0-4.732 3.398A4 4 0 0 0 17 32a4 4 0 0 0 4 4 4 4 0 0 0 2.658-1.018A5 5 0 0 0 24 35a5 5 0 0 0 2.113-.475A4 4 0 0 0 28 35a4 4 0 0 0 4-4 4 4 0 0 0-4-4 4 4 0 0 0-.008 0A5 5 0 0 0 24 25z" fill="#466b46"/></g></svg>

<?xml version="1.0" encoding="UTF-8" standalone="no"?>
<!-- Generator: Gravit.io -->

<svg
   xmlns:dc="http://purl.org/dc/elements/1.1/"
   xmlns:cc="http://creativecommons.org/ns#"
   xmlns:rdf="http://www.w3.org/1999/02/22-rdf-syntax-ns#"
   xmlns:svg="http://www.w3.org/2000/svg"
   xmlns="http://www.w3.org/2000/svg"
   xmlns:sodipodi="http://sodipodi.sourceforge.net/DTD/sodipodi-0.dtd"
   xmlns:inkscape="http://www.inkscape.org/namespaces/inkscape"
   style="isolation:isolate"
   viewBox="0 0 24 24"
   width="24"
   height="24"
   version="1.1"
   id="svg23"
   sodipodi:docname="folder-nordic-mail-cloud.svg"
   inkscape:version="0.92.4 5da689c313, 2019-01-14">
  <metadata
     id="metadata27">
    <rdf:RDF>
      <cc:Work
         rdf:about="">
        <dc:format>image/svg+xml</dc:format>
        <dc:type
           rdf:resource="http://purl.org/dc/dcmitype/StillImage" />
      </cc:Work>
    </rdf:RDF>
  </metadata>
  <sodipodi:namedview
     pagecolor="#ffffff"
     bordercolor="#666666"
     borderopacity="1"
     objecttolerance="10"
     gridtolerance="10"
     guidetolerance="10"
     inkscape:pageopacity="0"
     inkscape:pageshadow="2"
     inkscape:window-width="833"
     inkscape:window-height="663"
     id="namedview25"
     showgrid="false"
     inkscape:zoom="4.9166667"
     inkscape:cx="24"
     inkscape:cy="24.098949"
     inkscape:window-x="521"
     inkscape:window-y="269"
     inkscape:window-maximized="0"
     inkscape:current-layer="svg23" />
  <defs
     id="defs5">
    <clipPath
       clipPathUnits="userSpaceOnUse"
       id="clipPath833">
      <rect
         style="fill:none"
         y="0"
         x="0"
         width="48"
         height="48"
         id="rect835" />
    </clipPath>
  </defs>
  <g
     clip-path="url(#clipPath833)"
     id="g21"
     transform="matrix(0.4999982,0,0,0.4999982,-0.00141567,0.00108429)">
    <linearGradient
       id="_lgradient_34"
       x1="-0.046328004"
       y1="0.15974073"
       x2="0.85220069"
       y2="0.71023709"
       gradientTransform="matrix(45,0,0,30.763,1.229,15.445)"
       gradientUnits="userSpaceOnUse">
      <stop
         offset="3.0434782608695654%"
         stop-opacity="1"
         style="stop-color:#a3be8c"
         id="stop7" />
      <stop
         offset="98.26086956521739%"
         stop-opacity="1"
         style="stop-color:#a3be8c"
         id="stop9" />
    </linearGradient>
    <path
       d="m 1.545,46.208 44.378,-0.01 c 0.169,0 0.306,-0.137 0.306,-0.306 v -30.12 c 0,-0.169 -0.137,-0.306 -0.306,-0.307 l -25.816,-0.02 -4.221,3.206 c -0.068,0.051 -0.191,0.092 -0.276,0.092 L 1.229,18.688 1.238,45.902 c 0,0.169 0.138,0.306 0.307,0.306 z"
       stroke-miterlimit="3"
       id="path12"
       inkscape:connector-curvature="0"
       style="vector-effect:non-scaling-stroke;fill:url(#_lgradient_34);stroke:#72a046;stroke-width:1;stroke-linecap:square;stroke-linejoin:miter;stroke-miterlimit:3" />
    <linearGradient
       id="_lgradient_35"
       x1="0"
       y1="0.5"
       x2="1"
       y2="0.5"
       gradientTransform="matrix(18.873,0,0,6.535,1.243,12.208)"
       gradientUnits="userSpaceOnUse">
      <stop
         offset="3.0434782608695654%"
         stop-opacity="1"
         style="stop-color:#a3be8c"
         id="stop14" />
      <stop
         offset="98.26086956521739%"
         stop-opacity="1"
         style="stop-color:#a3be8c"
         id="stop16" />
    </linearGradient>
    <path
       d="M 20.116,15.456 15.887,12.3 C 15.819,12.249 15.695,12.208 15.61,12.208 H 1.554 c -0.169,0 -0.307,0.138 -0.307,0.307 l -0.004,6.168 14.557,0.06 z"
       stroke-miterlimit="3"
       id="path19"
       inkscape:connector-curvature="0"
       style="vector-effect:non-scaling-stroke;fill:url(#_lgradient_35);stroke:#72a046;stroke-width:1;stroke-linecap:square;stroke-linejoin:miter;stroke-miterlimit:3" />
    <path
       inkscape:connector-curvature="0"
       style="fill:#466b46"
       d="M 24,25 A 5,5 0 0 0 19.268,28.398 4,4 0 0 0 17,32 4,4 0 0 0 21,36 4,4 0 0 0 23.658,34.982 5,5 0 0 0 24,35 5,5 0 0 0 26.113,34.525 4,4 0 0 0 28,35 4,4 0 0 0 32,31 4,4 0 0 0 28,27 4,4 0 0 0 27.992,27 5,5 0 0 0 24,25 Z"
       id="path14" />
  </g>
</svg>
